assets/svg/icon_wallet_settings.svg

<svg width="24" height="24" viewBox="0 0 24 24" fill="none" xmlns="http://www.w3.org/2000/svg">
<path d="M8.74084 5.57002C10.3324 4.6275 11.1282 4.15625 12.002 4.15625C12.8758 4.15625 13.6716 4.6275 15.2631 5.57002L15.8014 5.88881C17.393 6.83132 18.1888 7.30258 18.6257 8.07879C19.0626 8.85501 19.0626 9.79753 19.0626 11.6826V12.3201C19.0626 14.2052 19.0626 15.1477 18.6257 15.9239C18.1888 16.7001 17.393 17.1713 15.8014 18.1138L15.2631 18.4327C13.6716 19.3752 12.8758 19.8464 12.002 19.8464C11.1282 19.8464 10.3324 19.3752 8.74084 18.4327L8.20255 18.1138C6.611 17.1713 5.81522 16.7001 5.37831 15.9239C4.94141 15.1477 4.94141 14.2052 4.94141 12.3201V11.6826C4.94141 9.79753 4.94141 8.85501 5.37831 8.07879C5.81522 7.30258 6.611 6.83132 8.20255 5.88881L8.74084 5.57002Z" stroke="#0E0E0E" stroke-width="1.17676"/>
<path d="M11.9981 14.3477C13.2979 14.3477 14.3516 13.294 14.3516 11.9942C14.3516 10.6943 13.2979 9.64062 11.9981 9.64062C10.6982 9.64062 9.64453 10.6943 9.64453 11.9942C9.64453 13.294 10.6982 14.3477 11.9981 14.3477Z" stroke="#0E0E0E" stroke-width="1.17676"/>
</svg>

<svg xmlns="http://www.w3.org/2000/svg" width="24" height="24" fill="none"><path stroke="#0E0E0E" stroke-width="1.177" d="M8.74 5.57c1.592-.942 2.388-1.414 3.262-1.414s1.67.472 3.261 1.414l.538.319c1.592.942 2.388 1.414 2.825 2.19s.437 1.719.437 3.604v.637c0 1.885 0 2.828-.437 3.604s-1.233 1.247-2.825 2.19l-.538.319c-1.591.942-2.387 1.413-3.261 1.413s-1.67-.47-3.261-1.413l-.538-.32c-1.592-.942-2.388-1.413-2.825-2.19-.437-.775-.437-1.718-.437-3.603v-.637c0-1.885 0-2.828.437-3.604s1.233-1.248 2.825-2.19z"/><path stroke="#0E0E0E" stroke-width="1.177" d="M11.998 14.348a2.354 2.354 0 1 0 0-4.707 2.354 2.354 0 0 0 0 4.707Z"/></svg>
